svg/emoji_u1f928.svg

<?xml version="1.0" encoding="UTF-8" standalone="no"?>
<svg
   xmlns:dc="http://purl.org/dc/elements/1.1/"
   xmlns:cc="http://creativecommons.org/ns#"
   xmlns:rdf="http://www.w3.org/1999/02/22-rdf-syntax-ns#"
   xmlns:svg="http://www.w3.org/2000/svg"
   xmlns="http://www.w3.org/2000/svg"
   xmlns:sodipodi="http://sodipodi.sourceforge.net/DTD/sodipodi-0.dtd"
   xmlns:inkscape="http://www.inkscape.org/namespaces/inkscape"
   width="128"
   height="128"
   style="enable-background:new 0 0 128 128;"
   version="1.1"
   id="svg12"
   sodipodi:docname="emoji_u1f610 (Kopie).svg"
   inkscape:version="0.92+devel unknown">
  <metadata
     id="metadata18">
    <rdf:RDF>
      <cc:Work
         rdf:about="">
        <dc:format>image/svg+xml</dc:format>
        <dc:type
           rdf:resource="http://purl.org/dc/dcmitype/StillImage" />
      </cc:Work>
    </rdf:RDF>
  </metadata>
  <defs
     id="defs16" />
  <sodipodi:namedview
     pagecolor="#ffffff"
     bordercolor="#666666"
     inkscape:document-rotation="0"
     borderopacity="1"
     objecttolerance="10"
     gridtolerance="10"
     guidetolerance="10"
     inkscape:pageopacity="0"
     inkscape:pageshadow="2"
     inkscape:window-width="1680"
     inkscape:window-height="986"
     id="namedview14"
     showgrid="false"
     inkscape:zoom="3.8504174"
     inkscape:cx="98.490562"
     inkscape:cy="67.240497"
     inkscape:window-x="0"
     inkscape:window-y="27"
     inkscape:window-maximized="1"
     inkscape:current-layer="svg12" />
  <path
     d="M64,9.56c-62.41,0-63.88,69.96-63.88,83.8c0,13.86,28.59,25.08,63.88,25.08 c35.28,0,63.88-11.22,63.88-25.08C127.88,79.52,126.4,9.56,64,9.56z"
     style="fill:#FCC21B;"
     id="path2" />
  <path
     style="fill:#2f2f2f"
     d="M 38.496094 43.904297 C 35.798622 45.502809 33.954402 48.831304 33.990234 52.679688 C 34.040234 58.029687 37.720937 62.340781 42.210938 62.300781 C 46.700938 62.250781 50.3 57.879297 50.25 52.529297 C 50.215522 48.826321 48.450321 45.62982 45.888672 44.013672 C 42.822181 44.192726 40.303384 44.086328 38.496094 43.904297 z "
     id="path4" />
  <path
     inkscape:connector-curvature="0"
     id="path6"
     style="fill:#2f2f2f"
     d="m 86.32,62.3 c 4.48,-0.01 8.11,-4.36 8.1,-9.71 -0.01,-5.37 -3.66,-9.7 -8.14,-9.69 -4.49,0.01 -8.13,4.36 -8.12,9.73 0.02,5.35 3.67,9.68 8.16,9.67 z" />
  <path
     d="M 77.305867,84.75 H 50.374511 c -0.925726,0 -2.371732,-1.34 -2.371732,-3 0,-1.66 1.446006,-3 2.371732,-3 h 26.936933 c 0.925725,0 2.695777,1.34 2.695777,3 0,1.66 -1.775628,3 -2.701354,3 z"
     style="fill:#2f2f2f;stroke-width:0.99999994"
     id="path10"
     inkscape:connector-curvature="0"
     sodipodi:nodetypes="sssssss" />
  <path
     style="color:#000000;font-style:normal;font-variant:normal;font-weight:normal;font-stretch:normal;font-size:medium;line-height:normal;font-family:sans-serif;font-variant-ligatures:normal;font-variant-position:normal;font-variant-caps:normal;font-variant-numeric:normal;font-variant-alternates:normal;font-variant-east-asian:normal;font-feature-settings:normal;text-indent:0;text-align:start;text-decoration:none;text-decoration-line:none;text-decoration-style:solid;text-decoration-color:#000000;letter-spacing:normal;word-spacing:normal;text-transform:none;writing-mode:lr-tb;direction:ltr;text-orientation:mixed;dominant-baseline:auto;baseline-shift:baseline;text-anchor:start;white-space:normal;shape-padding:0;clip-rule:nonzero;display:inline;overflow:visible;visibility:visible;isolation:auto;mix-blend-mode:normal;color-interpolation:sRGB;color-interpolation-filters:linearRGB;solid-color:#000000;solid-opacity:1;vector-effect:none;fill:#2f2f2f;fill-opacity:1;fill-rule:evenodd;stroke:none;stroke-width:4.17999983;stroke-linecap:round;stroke-linejoin:round;stroke-miterlimit:4;stroke-dasharray:none;stroke-dashoffset:0;stroke-opacity:1;filter-blend-mode:normal;filter-gaussianBlur-deviation:0;color-rendering:auto;image-rendering:auto;shape-rendering:auto;text-rendering:auto;enable-background:accumulate;opacity:1"
     d="M 49.974609 36.708984 A 2.0899999 2.0899999 0 0 0 49.619141 36.732422 C 41.564546 37.947001 37.03125 36.771484 37.03125 36.771484 A 2.0899999 2.0899999 0 0 0 34.494141 38.289062 A 2.0899999 2.0899999 0 0 0 36.011719 40.824219 C 36.011719 40.824219 41.537474 42.177847 50.242188 40.865234 A 2.0899999 2.0899999 0 0 0 51.996094 38.486328 A 2.0899999 2.0899999 0 0 0 49.974609 36.708984 z "
     id="path859" />
  <path
     style="color:#000000;font-style:normal;font-variant:normal;font-weight:normal;font-stretch:normal;font-size:medium;line-height:normal;font-family:sans-serif;font-variant-ligatures:normal;font-variant-position:normal;font-variant-caps:normal;font-variant-numeric:normal;font-variant-alternates:normal;font-variant-east-asian:normal;font-feature-settings:normal;text-indent:0;text-align:start;text-decoration:none;text-decoration-line:none;text-decoration-style:solid;text-decoration-color:#000000;letter-spacing:normal;word-spacing:normal;text-transform:none;writing-mode:lr-tb;direction:ltr;text-orientation:mixed;dominant-baseline:auto;baseline-shift:baseline;text-anchor:start;white-space:normal;shape-padding:0;clip-rule:nonzero;display:inline;overflow:visible;visibility:visible;isolation:auto;mix-blend-mode:normal;color-interpolation:sRGB;color-interpolation-filters:linearRGB;solid-color:#000000;solid-opacity:1;vector-effect:none;fill:#2f2f2f;fill-opacity:1;fill-rule:evenodd;stroke:none;stroke-width:4.17999983;stroke-linecap:round;stroke-linejoin:round;stroke-miterlimit:4;stroke-dasharray:none;stroke-dashoffset:0;stroke-opacity:1;filter-blend-mode:normal;filter-gaussianBlur-deviation:0;color-rendering:auto;image-rendering:auto;shape-rendering:auto;text-rendering:auto;enable-background:accumulate;opacity:1"
     d="M 84.601562 27.810547 C 83.566896 27.898834 82.616458 28.126899 81.769531 28.451172 C 78.381824 29.748262 76.554688 32.355469 76.554688 32.355469 A 2.0899999 2.0899999 0 0 0 77.044922 35.271484 A 2.0899999 2.0899999 0 0 0 79.958984 34.78125 C 79.958984 34.78125 81.139931 33.168609 83.263672 32.355469 C 85.387413 31.542328 88.353941 31.301435 92.943359 35.167969 A 2.0899999 2.0899999 0 0 0 95.888672 34.916016 A 2.0899999 2.0899999 0 0 0 95.636719 31.970703 C 91.56451 28.539913 87.705561 27.545686 84.601562 27.810547 z "
     id="path865" />
</svg>

<svg xmlns="http://www.w3.org/2000/svg" width="128" height="128"><path d="M64 9.56C1.59 9.56.12 79.52.12 93.36c0 13.86 28.59 25.08 63.88 25.08 35.28 0 63.88-11.22 63.88-25.08 0-13.84-1.48-83.8-63.88-83.8z" fill="#fcc21b"/><path d="M38.496 43.904c-2.697 1.599-4.542 4.927-4.506 8.776.05 5.35 3.73 9.66 8.22 9.62 4.49-.05 8.09-4.42 8.04-9.77-.034-3.704-1.8-6.9-4.361-8.516-3.067.179-5.586.072-7.393-.11zM86.32 62.3c4.48-.01 8.11-4.36 8.1-9.71-.01-5.37-3.66-9.7-8.14-9.69-4.49.01-8.13 4.36-8.12 9.73.02 5.35 3.67 9.68 8.16 9.67zM77.306 84.75H50.375c-.926 0-2.372-1.34-2.372-3s1.446-3 2.372-3H77.31c.926 0 2.696 1.34 2.696 3s-1.775 3-2.701 3z" fill="#2f2f2f"/><path style="line-height:normal;font-variant-ligatures:normal;font-variant-position:normal;font-variant-caps:normal;font-variant-numeric:normal;font-variant-alternates:normal;font-variant-east-asian:normal;font-feature-settings:normal;text-indent:0;text-align:start;text-decoration-line:none;text-decoration-style:solid;text-decoration-color:#000;text-transform:none;text-orientation:mixed;shape-padding:0;isolation:auto;mix-blend-mode:normal;filter-blend-mode:normal;filter-gaussianBlur-deviation:0" d="M49.975 36.709a2.09 2.09 0 0 0-.356.023c-8.054 1.215-12.588.04-12.588.04a2.09 2.09 0 0 0-2.537 1.517 2.09 2.09 0 0 0 1.518 2.535s5.525 1.354 14.23.041a2.09 2.09 0 0 0 1.754-2.379 2.09 2.09 0 0 0-2.021-1.777zM84.602 27.81a10.387 10.387 0 0 0-2.832.641c-3.388 1.297-5.215 3.904-5.215 3.904a2.09 2.09 0 0 0 .49 2.916 2.09 2.09 0 0 0 2.914-.49s1.18-1.612 3.305-2.426c2.123-.813 5.09-1.054 9.68 2.813a2.09 2.09 0 0 0 2.945-.252 2.09 2.09 0 0 0-.252-2.945c-4.072-3.431-7.931-4.425-11.035-4.16z" color="#000" font-weight="400" font-family="sans-serif" white-space="normal" overflow="visible" fill="#2f2f2f" fill-rule="evenodd" stroke-width="4.18" stroke-linecap="round" stroke-linejoin="round"/></svg>
